X: 41983
T: Walls Of Liscarrol, The
R: jig
M: 6/8
K: Dmixolydian
dcA AGE|GED D2E|GEE cEE|GAB cde|
dcA AGE|GED D2E|GEE cEE|GED D3:|
dcA ecA|dcA ecA|GEE cBc|GAB cde|
[1 dcA ecA|dcA ecA|GEE cEE|GED D3:|
[2 dcA AGE|GED D2E|GEE cEE|GED D3||

